dist/img/health.svg

<svg width="48" height="48" viewBox="0 0 48 48" fill="none" xmlns="http://www.w3.org/2000/svg">
<g clip-path="url(#clip0_296_3087)">
<path d="M32.9776 47.4152C33.6727 47.8435 34.5474 47.852 35.2479 47.4327C36.7074 46.5593 38.9145 45.0932 41.1147 43.0817C43.1478 41.2233 44.7589 39.2733 45.9032 37.2863C53.2478 24.3356 39.2428 19.0611 35.4007 27.5744C35.2352 27.9956 34.8951 28.3322 34.4583 28.4509C33.7355 28.6473 33.0208 28.2619 32.7657 27.6039C31.7991 25.11 29.3457 23.4365 26.6677 23.444C22.8715 23.3843 20.115 26.8914 20.1895 30.6082C20.2308 38.6868 29.1231 45.0401 32.9776 47.4152Z" fill="#5A73EF"/>
<path d="M19.9757 39.0436C18.896 37.2956 18.1495 35.5227 17.7417 33.7446C16.8205 33.7444 14.4621 33.6277 12.0935 31.3235C11.5492 30.7816 11.5037 29.8942 12.0293 29.3344C12.5772 28.7508 13.4948 28.7418 14.0542 29.3047C15.3991 30.6584 16.8194 30.8912 17.3823 30.928C17.379 30.7808 17.3722 30.6335 17.3765 30.4865C17.3833 29.3581 17.567 28.2502 17.9085 27.2082V15.1623H16.8027C14.8658 15.1623 13.2877 16.7276 13.2667 18.6596C13.2587 19.4038 12.7051 20.0489 11.9627 20.1017C11.1391 20.1604 10.4527 19.5095 10.4527 18.6984C10.4527 17.3849 10.8536 16.1632 11.5395 15.1494C11.5646 15.1077 11.5919 15.0669 11.6218 15.0272C12.9518 13.2639 12.537 11.1216 11.3659 10.0455C9.99918 8.72687 11.7322 6.7248 13.2042 7.91432C14.542 9.1059 15.2348 10.7999 15.2516 12.5408C15.7483 12.4157 16.2677 12.3484 16.8027 12.3484H17.9087V2.0201C17.9087 1.27658 17.3977 0.6337 16.6755 0.456801C14.2965 -0.161501 11.7003 1.1477 10.7419 3.29638C10.6352 3.52345 10.394 3.65411 10.1453 3.62035C6.72674 3.13205 3.58195 5.86826 3.60971 9.3266C3.62041 9.56222 3.48937 9.7802 3.27552 9.88093C-0.866315 11.7999 -1.14451 17.7512 2.81011 20.0436C3.19232 20.2699 3.17506 20.8287 2.78394 21.0393C-0.950638 23.0082 -0.800001 28.5485 3.0385 30.3115C3.26558 30.4182 3.39623 30.6594 3.36237 30.9081C2.87342 34.3247 5.61085 37.4729 9.06863 37.4438C9.30565 37.4366 9.51941 37.5796 9.61152 37.7982C10.4458 39.7692 12.4276 41.069 14.7786 41.069L14.8275 41.0724C17.138 41.0724 18.8576 40.0413 19.9907 39.0673C19.9857 39.0593 19.9806 39.0515 19.9757 39.0436Z" fill="#5A73EF"/>
<path d="M20.7225 16.0538C22.4169 15.1919 23.3169 13.4662 23.2276 11.9209C23.1828 11.1452 23.7753 10.48 24.551 10.4352C25.3271 10.3902 25.992 10.9829 26.0368 11.7586C26.1452 13.6351 25.4825 15.4557 24.1708 16.8851C23.2312 17.909 22.0352 18.6592 20.7224 19.0655V22.8721C22.3663 21.4224 24.4545 20.6305 26.6644 20.6305C28.5893 20.6289 30.4421 21.204 32.0184 22.3025C32.8077 22.8526 33.4997 23.5126 34.0772 24.2603C34.6192 23.5586 35.2633 22.9354 35.9928 22.4064C35.6857 21.9189 35.3429 21.4901 35.0301 21.1682C34.7525 20.8825 34.8366 20.4071 35.2009 20.2461C36.9818 19.4593 38.2544 17.8058 38.2544 15.7257C38.2544 13.6469 37.032 11.8538 35.2669 11.0254C35.0397 10.9187 34.9089 10.6774 34.9428 10.4287C35.4338 7.00086 32.6773 3.84858 29.2099 3.89332C28.9831 3.89463 28.7794 3.76397 28.6822 3.55903C27.585 1.10298 24.5262 -0.342128 21.8529 0.498095C21.1779 0.697036 20.7226 1.32866 20.7226 2.0325C20.7225 2.03241 20.7225 16.0538 20.7225 16.0538Z" fill="#5A73EF"/>
</g>
<defs>
<clipPath id="clip0_296_3087">
<rect width="48" height="48" fill="white"/>
</clipPath>
</defs>
</svg>

<svg xmlns="http://www.w3.org/2000/svg" fill="none" viewBox="0 0 48 48">
  <g fill="#5A73EF" clip-path="url(#a)">
    <path d="M32.978 47.415c.695.428 1.57.437 2.27.018a37.054 37.054 0 0 0 5.867-4.351c2.033-1.859 3.644-3.809 4.788-5.796 7.345-12.95-6.66-18.225-10.502-9.712-.166.422-.506.758-.943.877a1.41 1.41 0 0 1-1.692-.847 6.561 6.561 0 0 0-6.098-4.16c-3.796-.06-6.553 3.447-6.479 7.164.042 8.079 8.934 14.432 12.789 16.807ZM19.976 39.044c-1.08-1.748-1.826-3.521-2.234-5.3-.922 0-3.28-.116-5.649-2.42-.544-.542-.59-1.43-.064-1.99a1.407 1.407 0 0 1 2.025-.03c1.345 1.354 2.765 1.587 3.328 1.624-.003-.147-.01-.294-.006-.442.007-1.128.191-2.236.532-3.278V15.162h-1.105a3.54 3.54 0 0 0-3.536 3.498c-.008.744-.562 1.389-1.304 1.442a1.407 1.407 0 0 1-1.51-1.404c0-1.313.4-2.535 1.087-3.549a1.42 1.42 0 0 1 .082-.122c1.33-1.763.915-3.905-.256-4.981-1.367-1.32.366-3.321 1.838-2.132 1.338 1.192 2.03 2.886 2.048 4.627a6.343 6.343 0 0 1 1.55-.193h1.107V2.02c0-.743-.511-1.386-1.233-1.563-2.38-.619-4.976.69-5.934 2.84a.573.573 0 0 1-.597.323C6.727 3.132 3.582 5.868 3.61 9.327a.582.582 0 0 1-.334.554c-4.142 1.919-4.42 7.87-.466 10.163a.573.573 0 0 1-.026.995c-3.735 1.97-3.584 7.51.255 9.272a.573.573 0 0 1 .323.597c-.489 3.417 2.249 6.565 5.707 6.536a.573.573 0 0 1 .543.354c.834 1.971 2.816 3.271 5.167 3.271l.049.003c2.31 0 4.03-1.03 5.163-2.005l-.015-.023Z"/>
    <path d="M20.723 16.054c1.694-.862 2.594-2.588 2.505-4.133a1.407 1.407 0 0 1 2.809-.162c.108 1.876-.554 3.697-1.866 5.126a7.826 7.826 0 0 1-3.449 2.18v3.807a8.93 8.93 0 0 1 5.942-2.241 9.304 9.304 0 0 1 5.354 1.671 9.36 9.36 0 0 1 2.06 1.958 9.356 9.356 0 0 1 1.915-1.854 7.716 7.716 0 0 0-.963-1.238.57.57 0 0 1 .17-.922c1.782-.787 3.054-2.44 3.054-4.52a5.19 5.19 0 0 0-2.987-4.7.573.573 0 0 1-.324-.597c.49-3.428-2.266-6.58-5.733-6.536a.58.58 0 0 1-.528-.334c-1.097-2.456-4.156-3.901-6.83-3.06-.674.198-1.13.83-1.13 1.534v14.02Z"/>
  </g>
  <defs>
    <clipPath id="a">
      <path fill="#fff" d="M0 0h48v48H0z"/>
    </clipPath>
  </defs>
</svg>
